icons/folder_type_bloc_opened.svg

<svg xmlns="http://www.w3.org/2000/svg" viewBox="0 0 32 32"><path d="M27.4 5.5h-9.2l-2.1 4.2H4.3v4H.5l3.8 12.8h25.2v-21Zm-7.2 2.1h7.1v2.1h-8.1Zm5.5 6.1H6.6v-1.9h20.8v7.626Z" style="fill:#7bc0db"/><path d="m31 26-8.571 5-8.572-5V16l8.572-5L31 16v10z" style="isolation:isolate"/><path d="M15.624 17.071 22.429 21l6.804-3.929-6.804-3.928-6.805 3.928z" style="fill:#0084c1"/><path d="M15.624 17.071v7.858l6.805 3.928V21l-6.805-3.929z" style="fill:#82eddf"/><path d="M22.429 28.857V21l6.804-3.929v7.858l-6.804 3.928z" style="fill:#00d3b9"/></svg>

<svg xmlns="http://www.w3.org/2000/svg" viewBox="0 0 32 32"><title>folder_type_bloc_opened</title><path d="M27.4,5.5H18.2L16.1,9.7H4.3v4H.5L4.3,26.5H29.5V5.5ZM20.2,7.6h7.1V9.7H19.2Zm5.5,6.1H6.6V11.8H27.4v7.626Z" style="fill:#7bc0db"/><polygon points="31 26 22.429 31 13.857 26 13.857 16 22.429 11 31 16 31 26" style="isolation:isolate"/><polygon points="15.624 17.071 22.429 21 29.233 17.071 22.429 13.143 15.624 17.071" style="fill:#0084c1"/><polygon points="15.624 17.071 15.624 24.929 22.429 28.857 22.429 21 15.624 17.071" style="fill:#82eddf"/><polygon points="22.429 28.857 22.429 21 29.233 17.071 29.233 24.929 22.429 28.857" style="fill:#00d3b9"/></svg>
